X: 13584
T: Flying To Birmingham
R: jig
M: 6/8
K: Bminor
M:5/8
~B3 AB|dBA Bd|~B3 AB|dgf ed|
~B3 AB|dBA BG|~F3 EF|1 GAB dc:|2 GAB dB||
K:Emin
|:e2d eg|edB dB|A2G AB|GAB dB|
e2d eg|edB dB|1 a2g ab|gag fd:|2 aae ae|a2e d^c||

